packages/kaspersky-hexa-ui-icons/src/iconsSVGs/16/Vk.svg

<svg width="16" height="16" viewBox="0 0 16 16" fill="none" xmlns="http://www.w3.org/2000/svg">
<path fill-rule="evenodd" clip-rule="evenodd" d="M1.98238 1.98238C1 2.96476 1 4.546 1 7.70833V8.29167C1 11.454 1 13.0352 1.98238 14.0176C2.96476 15 4.546 15 7.70833 15H8.29167C11.454 15 13.0352 15 14.0176 14.0176C15 13.0352 15 11.454 15 8.29167V7.70833C15 4.546 15 2.96476 14.0176 1.98238C13.0352 1 11.454 1 8.29167 1H7.70833C4.546 1 2.96476 1 1.98238 1.98238ZM3.77083 5.375H4.79195C5.05286 5.375 5.15112 5.48922 5.24896 5.77191C5.74827 7.22626 6.59037 8.49731 6.93644 8.49731C7.06632 8.49731 7.12585 8.4375 7.12585 8.10795V6.60461C7.1025 6.17666 6.95296 5.99152 6.84216 5.85451C6.77366 5.76992 6.72011 5.70355 6.72011 5.6097C6.72011 5.49548 6.81767 5.375 6.97988 5.375H8.58447C8.8008 5.375 8.87614 5.49064 8.87614 5.75026V7.77271C8.87614 7.98889 8.97013 8.06466 9.03507 8.06466C9.16481 8.06466 9.27305 7.98889 9.51103 7.75106C10.2466 6.92904 10.7658 5.66368 10.7658 5.66368C10.8076 5.56641 10.8719 5.47498 10.9813 5.422C11.0423 5.39252 11.1172 5.375 11.21 5.375H12.2312C12.5399 5.375 12.6049 5.53394 12.5399 5.75026C12.4102 6.34499 11.166 8.09713 11.166 8.09713C11.1058 8.19368 11.0656 8.26318 11.0682 8.33952C11.0702 8.40019 11.0991 8.46513 11.166 8.55129C11.2194 8.62592 11.3331 8.73728 11.4633 8.86475C11.5971 8.99591 11.7485 9.14417 11.8693 9.28672C12.3079 9.78005 12.6385 10.1962 12.7305 10.483C12.8146 10.7708 12.6688 10.9167 12.377 10.9167H11.356C11.0824 10.9167 10.9447 10.7636 10.6472 10.4326C10.521 10.2923 10.3662 10.1201 10.1602 9.91406C9.55432 9.33002 9.2947 9.25425 9.14317 9.25425C8.93766 9.25425 8.87628 9.3125 8.87628 9.60417V10.5196C8.87628 10.7708 8.79596 10.9167 8.14683 10.9167C7.06519 10.9167 5.8763 10.2601 5.03263 9.04875C3.76699 7.27511 3.42078 5.93412 3.42078 5.66368C3.42078 5.51229 3.47917 5.375 3.77083 5.375Z" fill="black"/>
</svg>

<svg xmlns="http://www.w3.org/2000/svg" width="16" height="16" fill="none" viewBox="0 0 16 16"><path fill="#000" fill-rule="evenodd" d="M1.9824 1.9824C1 2.9648 1 4.546 1 7.7084v.5833c0 3.1623 0 4.7435.9824 5.7259S4.546 15 7.7084 15h.5833c3.1623 0 4.7435 0 5.7259-.9824S15 11.454 15 8.2916v-.5833c0-3.1623 0-4.7435-.9824-5.726C13.0352 1 11.454 1 8.2916 1h-.5833c-3.1623 0-4.7435 0-5.726.9824M3.7708 5.375H4.792c.2609 0 .3591.1142.457.397.4993 1.4543 1.3414 2.7253 1.6874 2.7253.13 0 .1894-.0598.1894-.3893V6.6046c-.0233-.428-.1728-.613-.2836-.75-.0685-.0847-.122-.151-.122-.2449 0-.1142.0975-.2347.2597-.2347h1.6046c.2163 0 .2916.1156.2916.3753v2.0224c0 .2162.094.292.159.292.1297 0 .238-.0758.476-.3136.7355-.822 1.2547-2.0874 1.2547-2.0874.0418-.0973.1061-.1887.2155-.2417.061-.0295.1359-.047.2287-.047h1.0212c.3087 0 .3737.159.3087.3753-.1297.5947-1.3739 2.3468-1.3739 2.3468-.0602.0966-.1004.166-.0978.2424.002.0607.0309.1256.0978.2118.0534.0746.1671.186.2973.3135.1338.1311.2852.2794.406.422.4386.4932.7692.9094.8612 1.1962.0841.2878-.0617.4337-.3535.4337h-1.021c-.2736 0-.4113-.1531-.7088-.4841-.1262-.1403-.281-.3125-.487-.5185-.6059-.584-.8655-.6598-1.017-.6598-.2055 0-.267.0582-.267.3499v.9154c0 .2512-.0802.3971-.7294.3971-1.0816 0-2.2705-.6566-3.1142-1.868-1.2656-1.7736-1.6118-3.1146-1.6118-3.385 0-.1514.0584-.2887.35-.2887" clip-rule="evenodd"/></svg>
